Catalina-dark/actions/22/draw-calligraphic.svg

<svg xmlns="http://www.w3.org/2000/svg" viewBox="0 0 22 22">
  <defs id="defs3051">
    <style type="text/css" id="current-color-scheme">
      .ColorScheme-Text {
        color:#f2f2f2
      }
      </style>
  </defs>
 <path 
     style="fill:currentColor;fill-opacity:1;stroke:none"      
	 class="ColorScheme-Text"
        d="M 17.199219 3.0039062 C 17.077002 3.0120393 16.996094 3.03125 16.996094 3.03125 C 16.334643 3.4845882 8.0585938 11.896484 8.0585938 11.896484 L 10.388672 14.121094 C 10.388672 14.121094 17.405344 5.8182371 18.423828 4.1289062 C 18.311785 3.0627393 17.565868 2.979507 17.199219 3.0039062 z M 7.4980469 12.542969 L 4.7441406 14.160156 C 4.7441406 14.160156 3.8843479 17.540849 3.5761719 18.863281 L 5.2285156 16.601562 C 5.0786556 16.268488 5.1695031 15.759692 5.4316406 15.472656 C 5.7844458 15.088376 6.4121247 15.089071 6.796875 15.441406 C 7.1830346 15.794681 7.2097573 16.391654 6.8574219 16.777344 C 6.5901167 17.070017 6.0956105 17.18677 5.7460938 17.056641 L 3.6796875 19 L 8.0371094 17.3125 L 9.7890625 14.6875 L 7.4980469 12.542969 z "
     />
</svg>

<svg width="22" height="22" viewBox="3.576 3.001 14.85 16" xmlns="http://www.w3.org/2000/svg">
<defs>
<style id="current-color-scheme" type="text/css">.ColorScheme-Text {
        color:#f2f2f2
      }</style>
</defs>
<path class="ColorScheme-Text" d="m17.199 3.0039c-0.12222 0.0081331-0.20312 0.027344-0.20312 0.027344-0.66145 0.45334-8.9375 8.8652-8.9375 8.8652l2.3301 2.2246s7.0167-8.3029 8.0352-9.9922c-0.11204-1.0662-0.85796-1.1494-1.2246-1.125zm-9.7012 9.5391-2.7539 1.6172s-0.85979 3.3807-1.168 4.7031l1.6523-2.2617c-0.14986-0.33307-0.059012-0.84187 0.20312-1.1289 0.35281-0.38428 0.98048-0.38358 1.3652-0.03125 0.38616 0.35328 0.41288 0.95025 0.060547 1.3359-0.26731 0.29267-0.76181 0.40943-1.1113 0.2793l-2.0664 1.9434 4.3574-1.6875 1.752-2.625-2.291-2.1445z" fill="currentColor"/>
</svg>
